assets/images/plus.svg

<svg fill="none" height="104" viewBox="0 0 79 104" width="79" xmlns="http://www.w3.org/2000/svg" xmlns:xlink="http://www.w3.org/1999/xlink"><filter id="a" color-interpolation-filters="sRGB" filterUnits="userSpaceOnUse" height="104" width="104" x="0" y="0"><feFlood flood-opacity="0" result="BackgroundImageFix"/><feColorMatrix in="SourceAlpha" result="hardAlpha" type="matrix" values="0 0 0 0 0 0 0 0 0 0 0 0 0 0 0 0 0 0 127 0"/><feOffset dx="17" dy="18"/><feGaussianBlur stdDeviation="20"/><feComposite in2="hardAlpha" operator="out"/><feColorMatrix type="matrix" values="0 0 0 0 0.0784314 0 0 0 0 0.0745098 0 0 0 0 0.0745098 0 0 0 0.4 0"/><feBlend in2="BackgroundImageFix" mode="normal" result="effect1_dropShadow_236_5397"/><feBlend in="SourceGraphic" in2="effect1_dropShadow_236_5397" mode="normal" result="shape"/></filter><g filter="url(#a)"><path d="m35 22c-.39 0-.7061.3161-.7061.7061v10.5878h-10.5878c-.39 0-.7061.3161-.7061.7061s.3161.7061.7061.7061h10.5878v10.5878c0 .39.3161.7061.7061.7061s.7061-.3161.7061-.7061v-10.5878h10.5878c.39 0 .7061-.3161.7061-.7061s-.3161-.7061-.7061-.7061h-10.5878v-10.5878c0-.39-.3161-.7061-.7061-.7061z" fill="#fff"/></g></svg>

<svg width="104" height="104" viewBox="0 0 104 104" fill="none" xmlns="http://www.w3.org/2000/svg">
<g filter="url(#filter0_d_290_9804)">
<g filter="url(#filter1_d_290_9804)">
<path d="M35 22C34.61 22 34.2939 22.3161 34.2939 22.7061V33.2939H23.7061C23.3161 33.2939 23 33.61 23 34C23 34.39 23.3161 34.7061 23.7061 34.7061H34.2939V45.2939C34.2939 45.6839 34.61 46 35 46C35.39 46 35.7061 45.6839 35.7061 45.2939V34.7061H46.2939C46.6839 34.7061 47 34.39 47 34C47 33.61 46.6839 33.2939 46.2939 33.2939H35.7061V22.7061C35.7061 22.3161 35.39 22 35 22V22Z" fill="white"/>
</g>
</g>
<defs>
<filter id="filter0_d_290_9804" x="0" y="0" width="104" height="104" filterUnits="userSpaceOnUse" color-interpolation-filters="sRGB">
<feFlood flood-opacity="0" result="BackgroundImageFix"/>
<feColorMatrix in="SourceAlpha" type="matrix" values="0 0 0 0 0 0 0 0 0 0 0 0 0 0 0 0 0 0 127 0" result="hardAlpha"/>
<feOffset dx="17" dy="18"/>
<feGaussianBlur stdDeviation="20"/>
<feComposite in2="hardAlpha" operator="out"/>
<feColorMatrix type="matrix" values="0 0 0 0 0.0784314 0 0 0 0 0.0745098 0 0 0 0 0.0745098 0 0 0 0.4 0"/>
<feBlend mode="normal" in2="BackgroundImageFix" result="effect1_dropShadow_290_9804"/>
<feBlend mode="normal" in="SourceGraphic" in2="effect1_dropShadow_290_9804" result="shape"/>
</filter>
<filter id="filter1_d_290_9804" x="0" y="0" width="104" height="104" filterUnits="userSpaceOnUse" color-interpolation-filters="sRGB">
<feFlood flood-opacity="0" result="BackgroundImageFix"/>
<feColorMatrix in="SourceAlpha" type="matrix" values="0 0 0 0 0 0 0 0 0 0 0 0 0 0 0 0 0 0 127 0" result="hardAlpha"/>
<feOffset dx="17" dy="18"/>
<feGaussianBlur stdDeviation="20"/>
<feComposite in2="hardAlpha" operator="out"/>
<feColorMatrix type="matrix" values="0 0 0 0 0.0784314 0 0 0 0 0.0745098 0 0 0 0 0.0745098 0 0 0 0.4 0"/>
<feBlend mode="normal" in2="BackgroundImageFix" result="effect1_dropShadow_290_9804"/>
<feBlend mode="normal" in="SourceGraphic" in2="effect1_dropShadow_290_9804" result="shape"/>
</filter>
</defs>
</svg>
